src/icons/icons_set_02/035-fleche-precedent.svg

<svg height="50" viewBox="0 0 50 50" width="50" xmlns="http://www.w3.org/2000/svg"><path d="m17.5 33.9242546 10.0053483-11.25317 2.9893034 2.6578308-14.8133757 16.6608329-15.15983419-16.64295 2.95711638-2.6935966 10.02144181 11.0018588v-33.6550605h4z" transform="matrix(0 1 -1 0 45 10)"/></svg>

<?xml version="1.0" encoding="UTF-8"?>
<svg width="50px" height="50px" viewBox="0 0 50 50" version="1.1" xmlns="http://www.w3.org/2000/svg" xmlns:xlink="http://www.w3.org/1999/xlink">
    <!-- Generator: Sketch 52.4 (67378) - http://www.bohemiancoding.com/sketch -->
    <title>035-fleche-precedent</title>
    <desc>Created with Sketch.</desc>
    <g id="035-fleche-precedent" stroke="none" stroke-width="1" fill="none" fill-rule="evenodd">
        <g id="Group-2-Copy" transform="translate(24.000000, 25.500000) rotate(-270.000000) translate(-24.000000, -25.500000) translate(8.500000, 4.500000)" fill="#000000" fill-rule="nonzero">
            <path d="M17.5,33.9242546 L27.5053483,22.6710846 L30.4946517,25.3289154 L15.681276,41.9897483 L0.521441814,25.3467983 L3.47855819,22.6532017 L13.5,33.6550605 L13.5,0 L17.5,0 L17.5,33.9242546 Z" id="Combined-Shape"></path>
        </g>
    </g>
</svg>
